X:11
T:The Connaughtman's Rambles   jig  #11
C:Trad/Anon
B:Allan's Irish Fiddler (pub. Mozart Allen,  Glascow) date unknown
Z:FROM ALLAN'S TO NOTEWORTHY, FROM NOTEWORTHY TO ABC, MIDI AND .TXT BY VINCE
BRENNAN Dec. 2002 (HTTP://WWW.SOSYOURMOM.COM)
I:abc2nwc
M:6/8
L:1/8
K:D
A|FAA dAA|BAB dAG|FAA Afe|dBB BAG|
FAA dAA|BAB def|gfe dfe|dBB B2:|
|:f|faa gbb|afd dcd|faa gbb|afde2g|
faa gbb|afd def|gfg efe|dBB B2:|
